icon-themes/sifr_svg/cmd/sc_flowchartshapes.flowchart-or.svg

<svg viewBox="0 0 16 16" xmlns="http://www.w3.org/2000/svg"><g fill="#555753"><path d="m8 1a7 7 0 0 0 -7 7 7 7 0 0 0 7 7 7 7 0 0 0 7-7 7 7 0 0 0 -7-7zm-1 1.0859375v4.9140625h-4.9101562a6 6 0 0 1 4.9101562-4.9140625zm2 .0039063a6 6 0 0 1 4.914062 4.9101562h-4.914062zm-6.9140625 6.9101562h4.9140625v4.910156a6 6 0 0 1 -4.9140625-4.910156zm6.9140625 0h4.910156a6 6 0 0 1 -4.910156 4.914062z"/><path d="m8 2a6 6 0 0 0 -6 6 6 6 0 0 0 6 6 6 6 0 0 0 6-6 6 6 0 0 0 -6-6z" opacity=".35"/></g></svg>

<svg xmlns="http://www.w3.org/2000/svg" viewBox="0 0 16 16">
  <path
     style="fill:#555753"
     d="M 8 1 A 7 7 0 0 0 1 8 A 7 7 0 0 0 8 15 A 7 7 0 0 0 15 8 A 7 7 0 0 0 8 1 z M 7 2.0859375 L 7 7 L 2.0898438 7 A 6 6 0 0 1 7 2.0859375 z M 9 2.0898438 A 6 6 0 0 1 13.914062 7 L 9 7 L 9 2.0898438 z M 2.0859375 9 L 7 9 L 7 13.910156 A 6 6 0 0 1 2.0859375 9 z M 9 9 L 13.910156 9 A 6 6 0 0 1 9 13.914062 L 9 9 z "
     />
  <path
     style="opacity:0.35;fill:#555753"
     d="M 8 2 A 6 6 0 0 0 2 8 A 6 6 0 0 0 8 14 A 6 6 0 0 0 14 8 A 6 6 0 0 0 8 2 z "
     />
</svg>
